X:85
T:Fort Garry Jig
C:Andy De Jarlis
M:6/8
L:1/8
Z:abc by Bruce Osborne - bosborne@kos.net
K:D
D|F2 F FEF|DFA dcd|e2 e ede|f2 f fef|!
F2 F FEF|DFA d2 d|A,CE GFE|D2 D D2:|!
|:f|fef a2 f|fef d2 A|B2 B BAB|G3 GFG|!
A,2 A, A,CE|[c2 e2] [c e] [c2 e2] B|A2 g fed|A3 -A2 f|!
fef a2 f|fef d2 A|B2 B BAB|G3 GFG|!
A,2 A, A,CE|[c2 e2] [c e] [c2 e2] e|gec ABc|d3 d2:|!
